X: 20771
T: a Tenant of my own
%R: march
B: James Oswald "The Caledonian Pocket Companion" v.2 p.77 #1
Z: 2019 John Chambers <jc:trillian.mit.edu>
M: 2/4
L: 1/8
K: Am
"_Brisk"A |\
cBAB | c2BA | dcBc | d2cB |\
A2e2 | e3d | edcB | A3 :: e |\
edef | {ef}g2(fe) | dcBc | d3d |\
eAAB | c2Bc |
dcBc | d2cB |\
A2e2 | e3d | edcB | A3 :: B |\
cAAe | cAAd | BGGg | BGGB |\
Aagf | eagf | edcB | A3 :|
|: g |\
eccg | ecgc | BGGB | BG dB |\
cAaA | cAaA | ^GABc | {Bc}d2cB |\
Aaca | daea | edcB | A3 :|
